X: 6638
T: Ceann Dubh Dileas
R: jig
M: 6/8
K: Aminor
c|AABc2d|eag fed|cAe f>ed|cAdD2:|
E|F>GA/B/ cAA|Ade f2e/d/|cAF G2G|A>GAD2:|

